icons/alert-24.svg

<svg xmlns="http://www.w3.org/2000/svg" width="24" height="24" viewBox="0 0 24 24"><path d="M13 17.5a1 1 0 11-2 0 1 1 0 012 0zm-.25-8.25a.75.75 0 00-1.5 0v4.5a.75.75 0 001.5 0v-4.5z"/><path fill-rule="evenodd" d="M9.836 3.244c.963-1.665 3.365-1.665 4.328 0l8.967 15.504c.963 1.667-.24 3.752-2.165 3.752H3.034c-1.926 0-3.128-2.085-2.165-3.752L9.836 3.244zm3.03.751a1 1 0 00-1.732 0L2.168 19.499A1 1 0 003.034 21h17.932a1 1 0 00.866-1.5L12.866 3.994z"/></svg>

<svg xmlns="http://www.w3.org/2000/svg" width="24" height="24" viewBox="0 0 24 24">
  <defs/>
  <path d="M13,17.5 A1 1 0 1 1 11,17.5 A1 1 0 0 1 13,17.5 Z M12.75,9.25 A0.75 0.75 0 0 0 11.25,9.25 L11.25,13.75 A0.75 0.75 0 0 0 12.75,13.75 L12.75,9.25 Z"/>
  <path d="M9.836,3.244 C10.799,1.579 13.201,1.579 14.164,3.244 L23.131,18.748 C24.094,20.415 22.891,22.5 20.966,22.5 L3.034,22.5 C1.108,22.5 -0.094,20.415 0.869,18.748 Z M12.866,3.995 C12.687,3.686 12.357,3.495 12,3.495 C11.643,3.495 11.313,3.686 11.134,3.995 L2.168,19.499 C1.989,19.808 1.989,20.19 2.167,20.5 C2.346,20.809 2.676,21 3.034,21 L20.966,21 C21.323,21 21.653,20.809 21.832,20.5 C22.011,20.191 22.011,19.809 21.832,19.5 L12.866,3.994 Z"/>
</svg>
